!!!OTL: 48d. Falsche Liebe.
!!!ARE: Europa, Mitteleuropa, Deutschland, Thueringen; Franken; Sachsen
!!!SCT: E0048C
!!!TXL: @@DE
!!!YEM: Copyright 1995, estate of Helmut Schaffrath.
**kern	**text
*ICvox	*
*M6/8	*
*k[f#]	*
*G:	*
!LO:TX:a:t=Mäßig bewegt.	!
!LO:TX:a:t=Aus Thüringen, Franken u. Sachſen. - Erk, Germania 228.	!
{8d	Es
=1	=1
8g	kann
8d	mich
8g	nichts
8b	Schönres
8g	.
8b	er-
=2	=2
4.dd	-freu-
4b}	-en,
{8dd	als
=3	=3
8.dd	wenn
16ee	es
8dd	der
8cc	Sommer
8a	.
8dd	an-
=4	=4
4b	-geht;
8r}	.
{4.dd^	da
=5	=5
8b	blü-
8cc	-hen
8dd	die
8b	Ro-
8cc	-ſen
8dd	im
=6	=6
4.ee	Wal-
4cc	-de,
8r}	.
=7	=7
{4.ee	ja,
8ggL	ja
8ff#J	.
8ee	im
=8	=8
4.dd	Wal-
4b}	-de,
{8dd	Sol-
=9	=9
8.dd	-da-
16ee	-ten
8dd	mar-
8cc	-ſchie-
8a	-ren
8dd	ins
=10	=10
4.b	Feld.
4r}	.
==	==
!!!AGN: erzaehlendes Volks - Lied, Sage, Mord, Ballade ?
!!!ONB: ESAC (Essen Associative Code) Database: ERK1
!!!AMT: compound duple
!!!AIN: vox
!!!EED: Helmut Schaffrath
!!!EEV: 1.0
!!!GTL: Sagen von Mordthaten, unschuldig Gesangeg und Hinrichtungen
!!!URL-scan: https://rosdok.uni-rostock.de/mcrviewer/recordIdentifier/rosdok_ppn745146120/iview2/phys_0231.iview2?x=-250.1417780126858&y=359.658770173206&scale=0.5392104374602399&rotation=0&layout=singlePageLayout&logicalDiv=log_0009
!!!ENC: Anna Maria Matuszewska
!!!EEV: 2024/11/25
*-	*-
